communes/6298.svg

<?xml version="1.0" encoding="UTF-8" standalone="no"?>
<svg
   xmlns:dc="http://purl.org/dc/elements/1.1/"
   xmlns:cc="http://web.resource.org/cc/"
   xmlns:rdf="http://www.w3.org/1999/02/22-rdf-syntax-ns#"
   xmlns:svg="http://www.w3.org/2000/svg"
   xmlns="http://www.w3.org/2000/svg"
   xmlns:xlink="http://www.w3.org/1999/xlink"
   xmlns:sodipodi="http://sodipodi.sourceforge.net/DTD/sodipodi-0.dtd"
   xmlns:inkscape="http://www.inkscape.org/namespaces/inkscape"
   height="763"
   width="603"
   version="1.0"
   id="svg20"
   sodipodi:version="0.32"
   inkscape:version="0.44.1"
   sodipodi:docname="Visperterminen-coat of arms.svg"
   sodipodi:docbase="F:\MIS DOCUMENTOS\Mis imágenes\Encyclopédie\Escudos de Suiza">
  <metadata
     id="metadata31">
    <rdf:RDF>
      <cc:Work
         rdf:about="">
        <dc:format>image/svg+xml</dc:format>
        <dc:type
           rdf:resource="http://purl.org/dc/dcmitype/StillImage" />
        <dc:date>07-AUG-2006</dc:date>
        <dc:creator>
          <cc:Agent>
            <dc:title>Jérôme BLUM (wagner51)</dc:title>
          </cc:Agent>
        </dc:creator>
        <cc:license
           rdf:resource="http://creativecommons.org/licenses/GPL/2.0/" />
        <dc:coverage />
        <dc:description>Gabarit pour le Projet:Blasons de WIkipédia</dc:description>
        <dc:subject>
          <rdf:Bag>
            <rdf:li>blason suisse modèle gabarit projet blasons</rdf:li>
          </rdf:Bag>
        </dc:subject>
        <dc:language>fr</dc:language>
        <dc:title>Gabrit d'un blason suisse</dc:title>
      </cc:Work>
      <cc:License
         rdf:about="http://creativecommons.org/licenses/GPL/2.0/">
        <cc:permits
           rdf:resource="http://web.resource.org/cc/Reproduction" />
        <cc:permits
           rdf:resource="http://web.resource.org/cc/Distribution" />
        <cc:requires
           rdf:resource="http://web.resource.org/cc/Notice" />
        <cc:permits
           rdf:resource="http://web.resource.org/cc/DerivativeWorks" />
        <cc:requires
           rdf:resource="http://web.resource.org/cc/ShareAlike" />
        <cc:requires
           rdf:resource="http://web.resource.org/cc/SourceCode" />
      </cc:License>
    </rdf:RDF>
  </metadata>
  <defs
     id="defs29">
    <linearGradient
       id="linearGradient2893">
      <stop
         style="stop-color:#ffffff;stop-opacity:0.3137255;"
         offset="0"
         id="stop2895" />
      <stop
         id="stop2897"
         offset="0.19"
         style="stop-color:#ffffff;stop-opacity:0.25098041;" />
      <stop
         style="stop-color:#6b6b6b;stop-opacity:0.1254902;"
         offset="0.60000002"
         id="stop2901" />
      <stop
         style="stop-color:#000000;stop-opacity:0.1254902;"
         offset="1"
         id="stop2899" />
    </linearGradient>
    <linearGradient
       id="linearGradient2955">
      <stop
         style="stop-color:white;stop-opacity:0;"
         offset="0"
         id="stop2965" />
      <stop
         style="stop-color:black;stop-opacity:0.64583331;"
         offset="1"
         id="stop2959" />
    </linearGradient>
    <radialGradient
       inkscape:collect="always"
       xlink:href="#linearGradient2893"
       id="radialGradient3236"
       gradientUnits="userSpaceOnUse"
       gradientTransform="matrix(1.215027,1.531577e-24,1.464684e-23,1.266667,-839.1924,-490.4894)"
       cx="858.04236"
       cy="579.93323"
       fx="858.04236"
       fy="579.93323"
       r="300" />
  </defs>
  <sodipodi:namedview
     inkscape:window-height="682"
     inkscape:window-width="1024"
     inkscape:pageshadow="2"
     inkscape:pageopacity="0.0"
     guidetolerance="10.0"
     gridtolerance="10.0"
     objecttolerance="10.0"
     borderopacity="1.0"
     bordercolor="#666666"
     pagecolor="#ffffff"
     id="base"
     inkscape:zoom="0.68309184"
     inkscape:cx="354.21075"
     inkscape:cy="467.83783"
     inkscape:window-x="-4"
     inkscape:window-y="-4"
     inkscape:current-layer="layer2"
     showgrid="true" />
  <desc
     id="desc22">Coat of Arms of Canton of Freiburg (Fribourg)</desc>
  <g
     inkscape:groupmode="layer"
     id="layer1"
     inkscape:label="Fond écu"
     sodipodi:insensitive="true">
    <path
       id="path1899"
       d="M 1.5,1.49998 L 1.5,460.3679 C 1.5,626.6785 135.81456,761.5 301.49999,761.5 C 467.18543,761.5 601.5,626.6785 601.5,460.3679 L 601.5,1.49998 L 1.5,1.49998 z "
       style="fill:#5ab532;fill-opacity:1" />
  </g>
  <g
     inkscape:groupmode="layer"
     id="layer2"
     inkscape:label="Meubles">
    <path
       d="M 488.46273,557.93336 C 488.46273,659.26731 406.31534,741.41471 304.98135,741.41471 C 203.6474,741.41471 121.50001,659.26731 121.50001,557.93336 C 121.50001,456.59942 203.6474,374.45198 304.98135,374.45198 C 406.31534,374.45198 488.46273,456.59942 488.46273,557.93336 L 488.46273,557.93336 z "
       style="fill:white;fill-opacity:1;fill-rule:evenodd;stroke:black;stroke-width:3.00000095;stroke-linejoin:miter;stroke-miterlimit:4;stroke-dasharray:none;stroke-opacity:1"
       id="path1951" />
    <g
       id="g6426">
      <path
         sodipodi:nodetypes="cccccccccscccccccccc"
         id="rect2864"
         style="fill:white;fill-opacity:1;fill-rule:evenodd;stroke:black;stroke-width:3.00000119;stroke-linejoin:miter;stroke-miterlimit:4;stroke-dasharray:none;stroke-opacity:1"
         d="M 273.27575,144.12857 L 279.33498,154.9502 L 279.33498,228.79401 L 189.95681,228.79401 L 181.5,221.74142 L 181.5,280.29977 L 189.95681,272.46354 L 279.33498,272.46354 L 279.33498,375.6217 C 286.11553,374.87052 292.9645,374.39629 299.94425,374.39629 C 306.924,374.39629 313.77296,374.87052 320.55352,375.6217 L 320.55352,272.46354 L 409.37015,272.46354 L 418.49991,281.86701 L 418.49991,220.95779 L 409.37015,228.79401 L 320.55352,228.79401 L 320.55352,155.73382 L 324.47162,143.34494 L 273.27575,144.12857 z " />
      <path
         sodipodi:nodetypes="ccccsccscscccc"
         id="path2842"
         style="fill:white;fill-opacity:1;fill-rule:evenodd;stroke:black;stroke-width:3.00000095;stroke-linejoin:miter;stroke-miterlimit:4;stroke-dasharray:none;stroke-opacity:1;display:inline"
         d="M 300.96978,374.43229 C 294.0692,374.43229 286.17483,374.65504 279.47207,375.39704 L 280.57754,555.59704 C 217.89395,554.28669 165.415,546.98074 122.90778,535.77577 C 122.03058,543.05118 121.52111,550.45062 121.52111,557.96254 C 121.52111,563.80074 121.80349,569.55638 122.3368,575.25517 C 122.36167,575.24483 122.39348,575.26553 122.41837,575.25517 C 169.53649,587.74777 233.90135,595.48427 304.96978,595.48427 C 376.01236,595.48427 440.4892,587.73977 487.60277,575.25517 C 488.13614,569.55602 488.50003,563.80113 488.50003,557.96254 C 488.50003,550.45287 487.99005,543.04906 487.11336,535.77577 C 444.60372,546.98487 384.07124,554.28737 321.36204,555.59704 L 320.32688,375.65583 C 313.62877,374.91488 307.86542,374.43229 300.96978,374.43229 z " />
    </g>
    <path
       sodipodi:type="arc"
       style="opacity:1;fill:white;fill-opacity:1;fill-rule:evenodd;stroke:black;stroke-width:3.10538602;stroke-linecap:round;stroke-linejoin:round;stroke-miterlimit:4;stroke-dasharray:none;stroke-opacity:1"
       id="path5530"
       sodipodi:cx="297.08984"
       sodipodi:cy="104.64063"
       sodipodi:rx="71.425781"
       sodipodi:ry="70.390625"
       d="M 368.51563 104.64063 A 71.425781 70.390625 0 1 1  225.66406,104.64063 A 71.425781 70.390625 0 1 1  368.51563 104.64063 z"
       transform="matrix(0.959037,0,0,0.973141,-204.9202,-18.83009)" />
    <path
       transform="matrix(0.959037,0,0,0.973141,-59.92019,-18.83009)"
       d="M 368.51563 104.64063 A 71.425781 70.390625 0 1 1  225.66406,104.64063 A 71.425781 70.390625 0 1 1  368.51563 104.64063 z"
       sodipodi:ry="70.390625"
       sodipodi:rx="71.425781"
       sodipodi:cy="104.64063"
       sodipodi:cx="297.08984"
       id="path6417"
       style="opacity:1;fill:white;fill-opacity:1;fill-rule:evenodd;stroke:black;stroke-width:3.10538602;stroke-linecap:round;stroke-linejoin:round;stroke-miterlimit:4;stroke-dasharray:none;stroke-opacity:1"
       sodipodi:type="arc" />
    <path
       sodipodi:type="arc"
       style="opacity:1;fill:white;fill-opacity:1;fill-rule:evenodd;stroke:black;stroke-width:3.10538602;stroke-linecap:round;stroke-linejoin:round;stroke-miterlimit:4;stroke-dasharray:none;stroke-opacity:1"
       id="path6419"
       sodipodi:cx="297.08984"
       sodipodi:cy="104.64063"
       sodipodi:rx="71.425781"
       sodipodi:ry="70.390625"
       d="M 368.51563 104.64063 A 71.425781 70.390625 0 1 1  225.66406,104.64063 A 71.425781 70.390625 0 1 1  368.51563 104.64063 z"
       transform="matrix(0.959037,0,0,0.973141,90.07981,-18.83009)" />
    <path
       transform="matrix(0.959037,0,0,0.973141,235.0798,-18.83009)"
       d="M 368.51563 104.64063 A 71.425781 70.390625 0 1 1  225.66406,104.64063 A 71.425781 70.390625 0 1 1  368.51563 104.64063 z"
       sodipodi:ry="70.390625"
       sodipodi:rx="71.425781"
       sodipodi:cy="104.64063"
       sodipodi:cx="297.08984"
       id="path6421"
       style="opacity:1;fill:white;fill-opacity:1;fill-rule:evenodd;stroke:black;stroke-width:3.10538602;stroke-linecap:round;stroke-linejoin:round;stroke-miterlimit:4;stroke-dasharray:none;stroke-opacity:1"
       sodipodi:type="arc" />
  </g>
  <g
     inkscape:groupmode="layer"
     id="layer3"
     inkscape:label="Reflet final"
     style="display:inline"
     sodipodi:insensitive="true">
    <path
       style="fill:url(#radialGradient3236);fill-opacity:1"
       d="M 1.5,1.5 L 1.5,460.3679 C 1.5,626.67854 135.81454,761.5 301.49993,761.5 C 467.1854,761.5 601.5,626.67854 601.5,460.3679 L 601.5,1.5 L 1.5,1.5 z "
       id="path2346" />
  </g>
  <g
     inkscape:groupmode="layer"
     id="layer4"
     inkscape:label="Contour final"
     style="display:inline"
     sodipodi:insensitive="true">
    <path
       style="fill:none;fill-opacity:1;stroke:#000000;stroke-width:3;stroke-miterlimit:4;stroke-dasharray:none;stroke-opacity:1"
       d="M 1.5,1.5 L 1.5,460.36794 C 1.5,626.67854 135.81454,761.5 301.49993,761.5 C 467.1854,761.5 601.5,626.67854 601.5,460.36794 L 601.5,1.5 L 1.5,1.5 z "
       id="path3239" />
  </g>
</svg>

<?xml version="1.0" encoding="UTF-8"?>
<svg version="1.0" viewBox="0 0 603 763" xmlns="http://www.w3.org/2000/svg" xmlns:cc="http://web.resource.org/cc/" xmlns:dc="http://purl.org/dc/elements/1.1/" xmlns:rdf="http://www.w3.org/1999/02/22-rdf-syntax-ns#" xmlns:xlink="http://www.w3.org/1999/xlink">
<metadata>
<rdf:RDF>
<cc:Work rdf:about="">
<dc:format>image/svg+xml</dc:format>
<dc:type rdf:resource="http://purl.org/dc/dcmitype/StillImage"/>
<dc:date>07-AUG-2006</dc:date>
<dc:creator>
<cc:Agent>
<dc:title>Jérôme BLUM (wagner51)</dc:title>
</cc:Agent>
</dc:creator>
<cc:license rdf:resource="http://creativecommons.org/licenses/GPL/2.0/"/>
<dc:coverage/>
<dc:description>Gabarit pour le Projet:Blasons de WIkipédia</dc:description>
<dc:subject>
<rdf:Bag>
<rdf:li>blason suisse modèle gabarit projet blasons</rdf:li>
</rdf:Bag>
</dc:subject>
<dc:language>fr</dc:language>
<dc:title>Gabrit d'un blason suisse</dc:title>
</cc:Work>
<cc:License rdf:about="http://creativecommons.org/licenses/GPL/2.0/">
<cc:permits rdf:resource="http://web.resource.org/cc/Reproduction"/>
<cc:permits rdf:resource="http://web.resource.org/cc/Distribution"/>
<cc:requires rdf:resource="http://web.resource.org/cc/Notice"/>
<cc:permits rdf:resource="http://web.resource.org/cc/DerivativeWorks"/>
<cc:requires rdf:resource="http://web.resource.org/cc/ShareAlike"/>
<cc:requires rdf:resource="http://web.resource.org/cc/SourceCode"/>
</cc:License>
</rdf:RDF>
</metadata>
<defs>
<radialGradient id="a" cx="858.04" cy="579.93" r="300" gradientTransform="matrix(1.215 1.5316e-24 1.4647e-23 1.2667 -839.19 -490.49)" gradientUnits="userSpaceOnUse">
<stop stop-color="#fff" stop-opacity=".31373" offset="0"/>
<stop stop-color="#fff" stop-opacity=".25098" offset=".19"/>
<stop stop-color="#6b6b6b" stop-opacity=".12549" offset=".6"/>
<stop stop-opacity=".12549" offset="1"/>
</radialGradient>
</defs>
<desc>Coat of Arms of Canton of Freiburg (Fribourg)</desc>
<path d="m1.5 1.5v458.87c0 166.31 134.31 301.13 300 301.13 165.69 0 300-134.82 300-301.13v-458.87h-600z" fill="#5ab532"/>
<g fill="#fff" fill-rule="evenodd" stroke="#000">
<path d="m488.46 557.93c0 101.33-82.147 183.48-183.48 183.48-101.33 0-183.48-82.147-183.48-183.48 0-101.33 82.147-183.48 183.48-183.48 101.33 0 183.48 82.147 183.48 183.48z" stroke-width="3"/>
<g>
<path d="m273.28 144.13 6.0592 10.822v73.844h-89.378l-8.4568-7.0526v58.558l8.4568-7.8362h89.378v103.16c6.7806-0.75118 13.63-1.2254 20.609-1.2254s13.829 0.47423 20.609 1.2254v-103.16h88.817l9.1298 9.4035v-60.909l-9.1298 7.8362h-88.817v-73.06l3.9181-12.389-51.196 0.78363z" stroke-width="3"/>
<path d="m300.97 374.43c-6.9006 0-14.795 0.22275-21.498 0.96475l1.1055 180.2c-62.684-1.3104-115.16-8.6163-157.67-19.821-0.8772 7.2754-1.3867 14.675-1.3867 22.187 0 5.8382 0.28238 11.594 0.81569 17.293 0.02487-0.01034 0.05668 0.01036 0.08157 0 47.118 12.493 111.48 20.229 182.55 20.229 71.043 0 135.52-7.7445 182.63-20.229 0.53337-5.6992 0.89726-11.454 0.89726-17.293 0-7.5097-0.50998-14.913-1.3867-22.187-42.51 11.209-103.04 18.512-165.75 19.821l-1.0352-179.94c-6.6981-0.74095-12.461-1.2235-19.357-1.2235z" stroke-width="3"/>
</g>
<path transform="matrix(.95904 0 0 .97314 -204.92 -18.83)" d="m368.52 104.64a71.426 70.391 0 1 1-142.85 0 71.426 70.391 0 1 1 142.85 0z" stroke-linecap="round" stroke-linejoin="round" stroke-width="3.1054"/>
<path transform="matrix(.95904 0 0 .97314 -59.92 -18.83)" d="m368.52 104.64a71.426 70.391 0 1 1-142.85 0 71.426 70.391 0 1 1 142.85 0z" stroke-linecap="round" stroke-linejoin="round" stroke-width="3.1054"/>
<path transform="matrix(.95904 0 0 .97314 90.08 -18.83)" d="m368.52 104.64a71.426 70.391 0 1 1-142.85 0 71.426 70.391 0 1 1 142.85 0z" stroke-linecap="round" stroke-linejoin="round" stroke-width="3.1054"/>
<path transform="matrix(.95904 0 0 .97314 235.08 -18.83)" d="m368.52 104.64a71.426 70.391 0 1 1-142.85 0 71.426 70.391 0 1 1 142.85 0z" stroke-linecap="round" stroke-linejoin="round" stroke-width="3.1054"/>
</g>
<g>
<path d="m1.5 1.5v458.87c0 166.31 134.31 301.13 300 301.13 165.69 0 300-134.82 300-301.13v-458.87h-600z" fill="url(#a)"/>
<path d="m1.5 1.5v458.87c0 166.31 134.31 301.13 300 301.13 165.69 0 300-134.82 300-301.13v-458.87h-600z" fill="none" stroke="#000" stroke-width="3"/>
</g>
</svg>
